X:289
T: Ryan's Hornpipe
N: O'Farrell's Pocket Companion v.3 (Sky ed. p.131)
N: "Irish" - "Farrell"
N: This is the first "signed" piece in the Pocket Companion.
M: 2/4
L: 1/8
R: hornpipe
Q: 140
K: D
(3A/B/c/| dd/d/ e/d/c/B/| A/G/F/E/ Dc/d/| ee/f/ ea| f/d/c/B/ B/A/G/F/|
dd/d/ e/d/c/B/| A/G/F/E/ F/A/d/F/| a/f/b/g/ f/d/e/c/| ddd :|
d/e/| ff/g/ ff/g/| f/e/d/c/ B/c/d/B/| ee/f/ ea| e/d/c/B/ AG/F/|
B>c B/A/B/F/| G/A/B/c/ d/e/f/g/| a/f/b/g/ f/d/e/c/| ddd :|
